!!!OTL: WIE KUMM ICH DENN DIE POORTS HERIN
!!!ARE: Europa, Mitteleuropa, Deutschland, Koeln ?
!!!SCT: E0460A
!!!YEM: Copyright 1995, estate of Helmut Schaffrath.
**kern
*ICvox
*Ivox
*M2/4
*k[f#]
*e:
{8B
=1
8e
8d#
8e
8f#
=2
8.gn
16f#
8e}
{8gn
=3
8f#
8B
8B#
8d#
=4
4e
4r}
=5
{8e
8b
8b
8b
=6
8a
8gn
8f#}
{8f#
=7
8gn
8e
8e
8e
=8
8f#
8B
8B}
{8B
=9
8e
8gn
8f#
8e
=10
8d#
8b
8b}
{8a
=11
8gn
8gn
8f#
8f#
=12
4e
8r}
==
!!!AGN: Liebes - Lied
!!!ONB: ESAC (Essen Associative Code) Database: ERK1
!!!AMT: simple duple
!!!AIN: vox
!!!EED: Helmut Schaffrath
!!!EEV: 1.0
*-
